!!!!SEGMENT: Fsc2011-Maria_virgo_prescripta.krn
!!!id: Fsc2011
!!!AGN: Motet
!!!SCT: Picker (1987)
!!!voices: 5
!!!COM: Costanzo Festa
!!!OTL: Maria virgo, prescripta
**kern	**kern	**kern	**kern	**kern
*part5	*part4	*part3	*part2	*part1
*staff5	*staff4	*staff3	*staff2	*staff1
*I"Bassus	*I"Tenor II	*I"Tenor I	*I"Altus	*I"Superius
*I'B	*I'T. II	*I'T. I	*I'A	*I'S
*clefF4	*clefGv2	*clefGv2	*clefG2	*clefG2
*k[]	*k[]	*k[]	*k[]	*k[]
*C:	*C:	*C:	*C:	*C:
*M2/1	*M2/1	*M2/1	*M2/1	*M2/1
*met(C|)	*met(C|)	*met(C|)	*met(C|)	*met(C|)
!!Section: Prima pars: Maria virgo, prescripta
!!!OMD: Prima pars: Maria virgo, prescripta
=1	=1	=1	=1	=1
0r	0r	0r	0r	0e
=2	=2	=2	=2	=2
0r	0r	0r	0r	1g
.	.	.	.	[1a
=3	=3	=3	=3	=3
0r	0r	0A	0r	1a]
.	.	.	.	[1cc
=4	=4	=4	=4	=4
0r	0r	1c	0r	2cc]
.	.	.	.	4b
.	.	.	.	4a
.	.	[1d	.	1b
=5	=5	=5	=5	=5
0r	0r	1d]	0r	0a
.	.	[1f	.	.
=6	=6	=6	=6	=6
0AA	0r	2f]	0r	1.cc
.	.	4e	.	.
.	.	4d	.	.
.	.	[1e	.	.
.	.	.	.	4b
.	.	.	.	4a
=7	=7	=7	=7	=7
0C	0r	2e]	0r	2.g
.	.	2d	.	.
.	.	.	.	4f
.	.	2c	.	1e
.	.	2B	.	.
=8	=8	=8	=8	=8
0D	0r	2A	0r	1r
.	.	1f	.	.
.	.	.	.	1a
.	.	4e	.	.
.	.	4d	.	.
=9	=9	=9	=9	=9
1.F	0r	2.c	0c	2a
.	.	.	.	1a
.	.	4B	.	.
.	.	1A	.	.
4E	.	.	.	4g
4D	.	.	.	4f
=10	=10	=10	=10	=10
2.C	0E	0r	0c	1e
4BB	.	.	.	.
1AA	.	.	.	1cc
=11	=11	=11	=11	=11
0GG	0G	1r	0d	2b
.	.	.	.	1dd
.	.	1G	.	.
.	.	.	.	4cc
.	.	.	.	4b
=12	=12	=12	=12	=12
1r	0A	1F	0d	1.a
1D	.	1D	.	.
.	.	.	.	2f
=13	=13	=13	=13	=13
1C	0c	1E	0r	2g
.	.	.	.	1e
1AA	.	[1A	.	.
.	.	.	.	[2a
=14	=14	=14	=14	=14
1D	0A	2A]	0d	2a]
.	.	2G	.	4d
.	.	.	.	4e
1D	.	[1F	.	4f
.	.	.	.	4g
.	.	.	.	[2a
=15	=15	=15	=15	=15
0AA	0A	2F]	0c	4a]
.	.	.	.	4g
.	.	4E	.	4a
.	.	4D	.	4b
.	.	2E	.	1cc
.	.	2A	.	.
=16	=16	=16	=16	=16
0r	0A	2D	0d	2.f
.	.	2D	.	.
.	.	.	.	4g
.	.	2F	.	2a
.	.	2F	.	2dd
=17	=17	=17	=17	=17
0r	0G	1E	0e	2g
.	.	.	.	2g
.	.	2r	.	2b
.	.	2G	.	2b
=18	=18	=18	=18	=18
1r	0A	2F	0f	0a
.	.	2.D	.	.
2r	.	.	.	.
.	.	4E	.	.
2D	.	2F	.	.
=19	=19	=19	=19	=19
2GG	0B	2G	0d	1r
2GG	.	2G	.	.
2BB	.	1D	.	2r
2BB	.	.	.	2dd
=20	=20	=20	=20	=20
0AA	0c	1r	0e	2cc
.	.	.	.	2a
.	.	2r	.	4cc
.	.	.	.	4b
.	.	2A	.	4a
.	.	.	.	4g
=21	=21	=21	=21	=21
1r	0A	2D	[0d	2.f
.	.	2D	.	.
.	.	.	.	4g
2r	.	2F	.	1a
2D	.	2F	.	.
=22	=22	=22	=22	=22
2GG	0G	1G	0d]	1r
2GG	.	.	.	.
2BB	.	2r	.	1b
2BB	.	2D	.	.
=23	=23	=23	=23	=23
0AA	[0A	2E	0r	1cc
.	.	2.F	.	.
.	.	.	.	2a
.	.	4E	.	.
.	.	4F	.	[2cc
.	.	4G	.	.
=24	=24	=24	=24	=24
1r	0A]	2A	0f	4cc]
.	.	.	.	4b
.	.	1D	.	4a
.	.	.	.	4g
1D	.	.	.	1a
.	.	2d	.	.
=25	=25	=25	=25	=25
2.E	0r	2B	0g	2.g
.	.	2.G	.	.
4D	.	.	.	4f
2C	.	.	.	2e
.	.	4A	.	.
2BB	.	2B	.	2d
=26	=26	=26	=26	=26
1AA	0r	1c	0a	0e
1AA	.	[1c	.	.
=27	=27	=27	=27	=27
1.C	0E	2c]	[0g	2r
.	.	2c	.	2.e
.	.	1G	.	.
.	.	.	.	4f
2C	.	.	.	4g
.	.	.	.	4a
=28	=28	=28	=28	=28
1GG	0G	1G	0g]	4b
.	.	.	.	4cc
.	.	.	.	1dd
1GG	.	1d	.	.
.	.	.	.	4d
.	.	.	.	4e
=29	=29	=29	=29	=29
1D	0A	2r	0f	4f
.	.	.	.	4g
.	.	2d	.	1a
2r	.	2c	.	.
2D	.	2d	.	2f
=30	=30	=30	=30	=30
2C	0c	4e	0r	2g
.	.	4d	.	.
2.F	.	4c	.	2.a
.	.	4B	.	.
.	.	2A	.	.
4E	.	.	.	4g
2C	.	[2e	.	2e
=31	=31	=31	=31	=31
2D	0A	4e]	0r	1f
.	.	4d	.	.
2D	.	1d	.	.
1AA	.	.	.	1e
.	.	2c#i	.	.
=32	=32	=32	=32	=32
1D	0A	1d	0f	1r
2D	.	1r	.	1a
[2D	.	.	.	.
=33	=33	=33	=33	=33
2D]	0A	1d	0f	2a
2D	.	.	.	1a
1F	.	2c	.	.
.	.	[2c	.	2a
=34	=34	=34	=34	=34
0C	[0G	2c]	0e	1cc
.	.	2c	.	.
.	.	1c	.	2.g
.	.	.	.	4a
=35	=35	=35	=35	=35
0r	0G]	2G	0d	1b
.	.	2.B	.	.
.	.	.	.	2r
.	.	4A	.	.
.	.	4G	.	2b
.	.	4F	.	.
=36	=36	=36	=36	=36
0AA	[0A	2E	0c	4cc
.	.	.	.	4a
.	.	2.e	.	2.cc
.	.	4d	.	4b
.	.	4c	.	4a
.	.	4B	.	4g
=37	=37	=37	=37	=37
0D	0A]	2.A	0d	2f
.	.	.	.	2d
.	.	4G	.	.
.	.	2F	.	1a
.	.	2D	.	.
=	=	=	=	=
*M3/3%2	*	*M3/3%2	*	*M3/3%2
*met(3)	*	*met(3)	*	*met(3)
*Xtuplet	*	*Xtuplet	*	*Xtuplet
3%4GG	0B	3%2.d	0g	3%2r
.	.	.	.	3%2r
.	.	3c	.	.
3%2GG	.	3%2B	.	3%2dd
=38	=38	=38	=38	=38
3%2.AA	0c	3A	0e	3%2.cc
.	.	3B	.	.
.	.	3c	.	.
3BB	.	3d	.	3b
3%2C	.	3%2e	.	3a
.	.	.	.	3g
=39	=39	=39	=39	=39
3%2.D	0A	3%4d	0f	3%2f
.	.	.	.	3%2a
3E	.	.	.	.
3%2F	.	[3%2c	.	3a
.	.	.	.	3b
=40	=40	=40	=40	=40
3%2.C	0G	1c]	[0e	3cc
.	.	.	.	3dd
.	.	.	.	3%2ee
3D	.	1r	.	.
3%2E	.	.	.	3%2b
=	=	=	=	=
*	*	*	*	*tuplet
*	*	*	*	*M2/1
*	*	*	*	*met(C|)
3%2.AA	0A	3%2r	0e]	1cc
.	.	3%2r	.	.
3BB	.	.	.	2r
3%2C	.	3%2C	.	.
.	.	.	.	2cc
=	=	=	=	=
*tuplet	*	*tuplet	*	*
*M2/1	*	*M2/1	*	*
*met(C|)	*	*met(C|)	*	*
1GG	0r	1G	0d	2b
.	.	.	.	2g
2r	.	2D	.	2a
2AA	.	2G	.	2b
=41	=41	=41	=41	=41
1D	0r	4F	0d	1a
.	.	4E	.	.
.	.	4D	.	.
.	.	4C	.	.
2BB	.	1D	.	2r
2D	.	.	.	[2a
=42	=42	=42	=42	=42
4C	0C	1E	0r	2a]
4BB	.	.	.	.
4AA	.	.	.	2.cc
4GG	.	.	.	.
2AA	.	1F	.	.
.	.	.	.	4b
2AA	.	.	.	4cc
.	.	.	.	4a
=43	=43	=43	=43	=43
1GG	0D	1G	0r	1b
2r	.	2F	.	2a
2GG	.	2G	.	[2b
=44	=44	=44	=44	=44
1D	0D	2D	0r	4b]
.	.	.	.	8aL
.	.	.	.	8gJ
.	.	2A	.	2a
2BB	.	2G	.	1d
2D	.	2F	.	.
=45	=45	=45	=45	=45
4C	0A	2E	0c	0r
4BB	.	.	.	.
4AA	.	2.F	.	.
4GG	.	.	.	.
2AA	.	.	.	.
.	.	4E	.	.
2AA	.	2C	.	.
=46	=46	=46	=46	=46
0GG	0B	1G	0d	0g
.	.	[1D	.	.
=47	=47	=47	=47	=47
0D	[0A	2D]	0d	1f
.	.	2E	.	.
.	.	2F	.	2.a
.	.	2D	.	.
.	.	.	.	4b
=48	=48	=48	=48	=48
0AA	0A]	1A	0e	2cc
.	.	.	.	1dd
.	.	2r	.	.
.	.	2E	.	2cc#i
=49	=49	=49	=49	=49
2.D	0A	2F	0d	2dd
.	.	2D	.	2.a
4C	.	.	.	.
4D	.	2.F	.	.
4E	.	.	.	4g
[2F	.	.	.	4a
.	.	4G	.	4b
=50	=50	=50	=50	=50
2F]	0A	1A	0c	2cc
4E	.	.	.	1a
4D	.	.	.	.
1F	.	2r	.	.
.	.	2A	.	4g
.	.	.	.	4f
=51	=51	=51	=51	=51
0C	0G	2.c	0r	1e
.	.	4d	.	.
.	.	2e	.	[1cc
.	.	2e	.	.
=52	=52	=52	=52	=52
1r	0F	1.A	0r	2cc]
.	.	.	.	2b
1D	.	.	.	2a
.	.	2d	.	2a
=53	=53	=53	=53	=53
1.E	0G	2c	0r	0g
.	.	4B	.	.
.	.	4A	.	.
.	.	1B	.	.
2D	.	.	.	.
=54	=54	=54	=54	=54
1C	0G	1E	0r	0r
1BB	.	2r	.	.
.	.	2B	.	.
=55	=55	=55	=55	=55
0AA	0c	2c	0r	1.a
.	.	2d	.	.
.	.	1e	.	.
.	.	.	.	2a
=56	=56	=56	=56	=56
1.D	0A	1f	0d	0a
.	.	[1d	.	.
2D	.	.	.	.
=57	=57	=57	=57	=57
0D	0A	2d]	0f	1d
.	.	2d	.	.
.	.	1d	.	1r
=58	=58	=58	=58	=58
0GG	0B-X	1d	0g	2r
.	.	.	.	2.dd
.	.	1G	.	.
.	.	.	.	4cc
.	.	.	.	4dd
.	.	.	.	4b
=59	=59	=59	=59	=59
1r	0A	2r	0a	4cc
.	.	.	.	4b
.	.	2c	.	4a
.	.	.	.	4g
1D	.	2d	.	2f
.	.	2f	.	2d
=60	=60	=60	=60	=60
1D	0A	4f	0f	0a
.	.	4e	.	.
.	.	4d	.	.
.	.	4c	.	.
1D	.	1d	.	.
=61	=61	=61	=61	=61
2AA	0r	1c	0e	1r
2.C	.	.	.	.
.	.	2.G	.	2r
4D	.	.	.	.
4E	.	.	.	[2g
4F	.	4A	.	.
=62	=62	=62	=62	=62
2G	0r	4B	0d	4g]
.	.	4c	.	4a
2G	.	4d	.	4b
.	.	4e	.	4cc
1D	.	2f	.	2dd
.	.	[2F	.	[2a
=63	=63	=63	=63	=63
1F	[0A	4F]	0c	2a]
.	.	4G	.	.
.	.	4A	.	2.cc
.	.	4B	.	.
1F	.	2c	.	.
.	.	.	.	4b
.	.	[2F	.	4a
.	.	.	.	4g
=64	=64	=64	=64	=64
1.D	0A]	4F]	0d	1f
.	.	4G	.	.
.	.	2A	.	.
.	.	1D	.	2r
2F	.	.	.	2a
=65	=65	=65	=65	=65
2E	0G	1r	0r	2.b
4D	.	.	.	.
4C	.	.	.	4cc
2BB	.	2r	.	1dd
2BB	.	2D	.	.
=66	=66	=66	=66	=66
1AA	0A	2E	0r	2cc
.	.	1F	.	2.c
2r	.	.	.	.
.	.	.	.	4d
2AA	.	2E	.	4e
.	.	.	.	4c
=67	=67	=67	=67	=67
2BB	0G	2D	0r	2d
1C	.	2C	.	2.e
.	.	1G	.	.
.	.	.	.	4c
2BB	.	.	.	2d
=68	=68	=68	=68	=68
1C	0E	2r	0r	2c
.	.	2G	.	1cc
1AA	.	1A	.	.
.	.	.	.	4b
.	.	.	.	4a
=69	=69	=69	=69	=69
0E	0G	2E	0r	4b
.	.	.	.	4a
.	.	2.e	.	4g
.	.	.	.	4f
.	.	.	.	1e
.	.	4d	.	.
.	.	4c	.	.
.	.	4B	.	.
=70	=70	=70	=70	=70
1r	0A	1.c	[0e	2r
.	.	.	.	1a
1AA	.	.	.	.
.	.	2C	.	[2cc
=71	=71	=71	=71	=71
1C	0G	2.E	0e]	2cc]
.	.	.	.	4b
.	.	4F	.	4a
1C	.	2G	.	2g
.	.	2C	.	[2cc
=72	=72	=72	=72	=72
1FF	[0A	4F	0f	4cc]
.	.	4G	.	4b
.	.	4A	.	4a
.	.	4B	.	4g
1FF	.	1c	.	2.a
.	.	.	.	4b
=73	=73	=73	=73	=73
0AA	0A]	0r	0e	2cc
.	.	.	.	1dd
.	.	.	.	2cc#i
=74	=74	=74	=74	=74
0r	0B	2r	0d	1dd
.	.	2G	.	.
.	.	2D	.	2r
.	.	4G	.	[2dd
.	.	4A	.	.
=75	=75	=75	=75	=75
0r	0G	4B	0d	4dd]
.	.	4c	.	4cc
.	.	1d	.	4b
.	.	.	.	4a
.	.	.	.	1b
.	.	2B	.	.
=76	=76	=76	=76	=76
2.AA	0A	1c	0r	2a
.	.	.	.	1cc
4BB	.	.	.	.
2C	.	1A	.	.
2D	.	.	.	4b
.	.	.	.	4a
=77	=77	=77	=77	=77
2E	0c	2r	0r	2g
1F	.	2.A	.	2a
.	.	.	.	1f
.	.	4B	.	.
4E	.	4c	.	.
4D	.	4d	.	.
=78	=78	=78	=78	=78
2C	[0c	2e	0r	2e
1F	.	2.A	.	1a
.	.	4B	.	.
4E	.	4c	.	4g
4D	.	4d	.	4f
=79	=79	=79	=79	=79
1A	0c]	2e	0a	2e
.	.	1f	.	2.cc
[1F	.	.	.	.
.	.	.	.	4b
.	.	4e	.	[2a
.	.	4d	.	.
=80	=80	=80	=80	=80
2F]	0A	1.c	[0cc	2a]
4E	.	.	.	4g
4D	.	.	.	4f
1C	.	.	.	2e
.	.	2A	.	2a
=81	=81	=81	=81	=81
2r	0r	1.e	0cc]	2g
2.AA	.	.	.	2a
.	.	.	.	1e
4BB	.	.	.	.
4C	.	[2E	.	.
4D	.	.	.	.
=82	=82	=82	=82	=82
0E	0G	4E]	0b	1r
.	.	4F	.	.
.	.	4G	.	.
.	.	4A	.	.
.	.	1B	.	1g
=83	=83	=83	=83	=83
1.F	0A	0r	[0a	2.f
.	.	.	.	4e
.	.	.	.	2d
2E	.	.	.	2c
=84	=84	=84	=84	=84
2D	0A	2r	0a]	2f
2C	.	1c	.	1e
1F	.	.	.	.
.	.	2A	.	2d
=85	=85	=85	=85	=85
0E	0e	2c	0g	4e
.	.	.	.	4f
.	.	4B	.	4g
.	.	4A	.	4a
.	.	1G	.	2b
.	.	.	.	[2cc
=86	=86	=86	=86	=86
1r	0f	0F	0r	4cc]
.	.	.	.	4b
.	.	.	.	4a
.	.	.	.	4g
1D	.	.	.	2.a
.	.	.	.	4b
=	=	=	=	=
*	*	*	*M2/1	*
*	*	*	*met(C|r)	*
*	*	*	*rscale:2	*
1.C	0e	2r	[0g	4cc
.	.	.	.	4dd
.	.	1c	.	1ee
2D	.	4B	.	4dd
.	.	4A	.	4cc
=	=	=	=	=
*	*M2/1	*	*	*
*	*met(C|r)	*	*	*
*	*rscale:2	*	*	*
1E	1e	2G	1g]	1b
.	.	2B	.	.
1AA	1e	4c	[1a	1a
.	.	4B	.	.
.	.	4A	.	.
.	.	4G	.	.
=87	=87	=87	=87	=87
1D	1d	2F	0a_	1r
.	.	2.A	.	.
[1F	1c	.	.	2r
.	.	4G	.	.
.	.	2A	.	[2a
=88	=88	=88	=88	=88
2F]	1d	1D	1a]	2a]
4E	.	.	.	4g
4D	.	.	.	4f
1C	1r	2.G	1cc	1e
.	.	4A	.	.
=89	=89	=89	=89	=89
2.G	1d	2B	1dd	1d
.	.	2G	.	.
4F	.	.	.	.
4E	1g	2G	1ee	1g
4D	.	.	.	.
[2C	.	2c	.	.
=90	=90	=90	=90	=90
2C]	1e	2c	1cc	2e
2AA	.	1c	.	1a
2.C	[1e	.	1cc	.
.	.	4B	.	4g
4D	.	4A	.	4f
=91	=91	=91	=91	=91
1E	1e]	4G	1b	1g
.	.	4A	.	.
.	.	4B	.	.
.	.	4c	.	.
1r	1f	2d	1a	2r
.	.	2A	.	2cc
=92	=92	=92	=92	=92
1AA	1e	2.c	1a	2cc
.	.	.	.	2cc
.	.	4B	.	.
2AA	1e	4A	1a	1cc
.	.	4G	.	.
2AA	.	[2A	.	.
=93	=93	=93	=93	=93
1D	0r	2A]	1a	2a
.	.	2D	.	2.dd
2GG	.	[1d	[1g	.
.	.	.	.	4cc
[2G	.	.	.	4b
.	.	.	.	4a
=94	=94	=94	=94	=94
4G]	1G	2d]	1g]	2b
4F	.	.	.	.
2E	.	2e	.	2g
2D	1d	4f	1r	2a
.	.	4e	.	.
[2G	.	4d	.	[2b
.	.	4c	.	.
=95	=95	=95	=95	=95
2G]	1d	1B	0r	2b]
4F	.	.	.	4a
4E	.	.	.	4g
2F	1d	2A	.	2a
2G	.	[2G	.	2b
=96	=96	=96	=96	=96
2C	1e	2G]	1r	1cc
2C	.	2E	.	.
2D	1d	2.F	1f	1a
2D	.	.	.	.
.	.	4G	.	.
=97	=97	=97	=97	=97
2AA	1c	1A	1e	2.cc
1A	.	.	.	.
.	.	.	.	4b
.	1c	1r	1f	4a
.	.	.	.	4g
2F	.	.	.	[2a
=98	=98	=98	=98	=98
1G	0r	2r	1d	4a]
.	.	.	.	4g
.	.	2B	.	1g
1A	.	3c	1c	.
.	.	3A	.	.
.	.	.	.	2f#i
.	.	3c	.	.
=99	=99	=99	=99	=99
1G	1G	1B	1d	1g
2r	1A	2A	[1f	1r
2F	.	2c	.	.
=100	=100	=100	=100	=100
2D	1A	1d	1f]	2r
2F	.	.	.	2a
1E	1e	1G	1g	2.b
.	.	.	.	4cc
=101	=101	=101	=101	=101
1D	1f	0r	[0a	1dd
[1A	1e	.	.	1cc
=102	=102	=102	=102	=102
1A]	1e	0r	1a]	2r
.	.	.	.	2cc
2D	1r	.	1f	2.dd
2F	.	.	.	.
.	.	.	.	4cc
=103	=103	=103	=103	=103
2G	0r	2r	1e	2b
2.A	.	2c	.	2cc
.	.	2.c	1f	1a
4G	.	.	.	.
2F	.	.	.	.
.	.	4d	.	.
=104	=104	=104	=104	=104
2E	1E	2e	0g	1g
2.G	.	4d	.	.
.	.	4c	.	.
.	1G	2.B	.	1r
4F	.	.	.	.
2E	.	.	.	.
.	.	4c	.	.
=105	=105	=105	=105	=105
1D	1A	2d	1f	2r
.	.	2D	.	1dd
2.GG	[1B	1G	1d	.
.	.	.	.	2b
4AA	.	.	.	.
=106	=106	=106	=106	=106
2BB	1B]	1G	1d	2.dd
2GG	.	.	.	.
.	.	.	.	4cc
1D	[1A	1F	1f	2.a
.	.	.	.	4b
=107	=107	=107	=107	=107
1AA	0A]	2r	1e	1cc
.	.	2A	.	.
2r	.	2F	1f	1a
2D	.	2D	.	.
=108	=108	=108	=108	=108
2BB	0r	2.G	1d	2r
2GG	.	.	.	2g
.	.	4F	.	.
1C	.	2G	1e	2e
.	.	[2A	.	2c
=109	=109	=109	=109	=109
1D	1A	2A]	1d	1f
.	.	4G	.	.
.	.	4F	.	.
1AA	1A	2c	1c	1e
.	.	[2C	.	.
=110	=110	=110	=110	=110
2r	1G	4C]	1r	1e
.	.	4D	.	.
2C	.	2E	.	.
2FF	1A	2F	1c	1cc
2AA	.	2C	.	.
=111	=111	=111	=111	=111
1GG	1B	1G	1d	1b
2FF	1c	2.A	[1f	2a
[2F	.	.	.	[2a
.	.	4B	.	.
=112	=112	=112	=112	=112
2F]	1A	2c	1f]	2a]
2D	.	2d	.	4g
.	.	.	.	4f
1E	1G	2B	1g	1e
.	.	[2c	.	.
=113	=113	=113	=113	=113
1AA	0A	4c]	1e	1r
.	.	4B	.	.
.	.	1e	.	.
1D	.	.	1f	2r
.	.	2d	.	2a
=114	=114	=114	=114	=114
1AA	1C	2e	1e	2cc
.	.	2E	.	2cc
2r	1D	2.F	[1d	2a
2D	.	.	.	2a
.	.	4G	.	.
=115	=115	=115	=115	=115
2F	1D	1A	1d]	2d
2F	.	.	.	1a
2D	1A	2r	1d	.
2D	.	2F	.	[2dd
=116	=116	=116	=116	=116
1GG	1B	2G	1g	4dd]
.	.	.	.	4cc
.	.	2G	.	4dd
.	.	.	.	4b
2r	[1A	2A	1e	2cc
2C	.	2A	.	2cc
=117	=117	=117	=117	=117
2D	0A]	2D	1f	1a
2D	.	2d	.	.
1AA	.	2c	1e	2r
.	.	2A	.	2cc
=118	=118	=118	=118	=118
1r	0r	2.B-X	1d	1dd
.	.	8AL	.	.
.	.	8GJ	.	.
1D	.	1F	1d	1a
=119	=119	=119	=119	=119
2E	2r	2G	0r	0r
2E	2G	2B	.	.
1AA	2E	2c	.	.
.	2F	2A	.	.
=120	=120	=120	=120	=120
1E	2G	1G	2r	2r
.	1E	.	2g	2b
1r	.	2r	2e	2cc
.	2D	2d	2f	2a
=121	=121	=121	=121	=121
2r	1E	2B	2g	1g
2C	.	1c	1e	.
2AA	1F	.	.	1r
2BB	.	4B	2d	.
.	.	4A	.	.
=122	=122	=122	=122	=122
2C	[0El	2G	0e	2r
1AA	.	2A	.	2cc
.	.	2c	.	2a
2GG	.	2B	.	2b
=123	=123	=123	=123	=123
1AA	0E_	2A	0e	2cc
.	.	2c	.	1a
1E	.	1B	.	.
.	.	.	.	2g#i
=124	=124	=124	=124	=124
0AA	0E_	1A	[0el	2a
.	.	.	.	1cc
.	.	1c	.	.
.	.	.	.	4b
.	.	.	.	4a
=125	=125	=125	=125	=125
00El	00E]	00Bl	00e]	00gl
==	==	==	==	==
*-	*-	*-	*-	*-
!!!system-decoration: [*]
!!!RDF**kern: i = editorial accidental
!!!RDF**kern: l = terminal long
!!!ENC: Benjamin Ory
!!!END: 2022/5/5
!!!EED: Benjamin Ory
!!!EEV: 2022/05/05
!!!YEC: Copyright 2022 Benjamin Ory, All Rights Reserved
!!!ONB: Translated from MusicXML on 2022/05/05
